X: 1615
T: Ruhlerin Ey Gonca Leb
C: Tanburî Ali Efendi
O: Turkey
F: http://compmusic.upf.edu/node/140
N: yegah--sarki--kapali_curcuna--ruhlerin_ey--tanburi_ali_efendi
N: makam= yegah
N: form= sarki
N: usul= kapali_curcuna = 10/8
M: 10/8
L: 1/16
K: C _2/4B ^f  
Q: 1/4=216
%%MIDI tuningsystem comma53
=B6^3/4c4d2 c2d4z2  | e6=f4e2 d2c4B2  | \
w:  Ruh le rin  *  ey   |  gon ca  leb   | 
c4 B2g4g2 ^3/4f2f4d2  | e4 =f2e2 d2d8-d2  | 
w:  verd_ *  i  mu *  tar  |  râ  *  mı *  dır    | 
z4 =f2e2 d2c2 B2A4z2  | =B6^3/4c4d2 c2d4z2  | \
w:  SAZ  |  Ruh le rin  *  ey   | 
e6=f4e2 d2c4B2  | c4 B2g4g2 ^3/4f2f4d2  | 
w:  gon ca  leb   |  verd_ *  i  mu *  tar  | 
e4 =f2e2 d2d8-d2  | z4 g2^3/4f2 e2f2 g2a4z2  | \
w:  râ  *  mı *  dır    |  SAZ  | 
g6a4a4a4g2  | e4 ^3/4f2g4ag fed4z2  | 
w:  Verd_ i  mu tar  |  râ  *  a cep   | 
c4 B2e2 d2d2 c2c4B2  | c4 B2B2 A2A8-A2  | \
w:  sen  *  gi *  bi  *  râ  |  nâ  *  mı *  dır    | 
z4 .=f2.e2 .d2.c2 .B2A4z2  | 
w:  SAZ  | 
G6A4A4d6  | A6=B4AG ^3/4F^3/4EF4z2  | \
w:  Verd_ i  mu tar  |  râ  a cep   | 
^3/4E4 ^3/4F2G4G2 F2F4D2  | E4 ^3/4F2E2 D2D2 ^3/4C2D6  | 
w:  sen  *  gi bi  *  râ  |  nâ  *  mı *  dır    | 
z4 c2c4B2 d2c6  | G6c4c4c6  | d6e4e8z2  | \
w:  SAZ  |  Bu  gö rü nen   |  sî ne  mi   | 
c6d4d2 c2c4B2  | A6B4c8z2  | 
w:  â şı ka  *  bî   |  kî ne  mi    | 
z4 .=f2.e2 .d2.c2 .B2c4z2  | G6c4c4c6  | \
w:  SAZ  |  Bu  gö rü nen   | 
d6e4e4a4g2  | g4 ^2/4f2f2 e2e2 d2d4c2  | 
w:  sî ne  mi   |  â *  şı *  ka  *  bî   | 
c2B2 A2B4c8z2  | z4 g2^3/4f2 e2f2 g2a4z2  | \
w:  kî *  *  ne  mi    |  SAZ  | 
g6a4a4a4g2  | e4 ^3/4f2g4ag fed4z2  | 
w:  Verd_ i  mu tar  |  râ  *  a cep   | 
c4 B2e2 d2d2 c2c4B2  | c4 B2B2 A2A8-A2  | \
w:  sen  *  gi *  bi  *  râ  |  nâ  *  mı *  dır    | 
z4 .=f2.e2 .d2.c2 .B2A4z2  | 
w:  SAZ  | 
G6A4A4d6  | A6=B4AG ^3/4F^3/4EF4z2  | \
w:  Verd_ i  mu tar  |  râ  a cep   | 
^3/4E4 ^3/4F2G4G2 F2F4D2  | E4 ^3/4F2E2 D2D2 ^3/4C2D6  | 
w:  sen  *  gi bi  *  râ  |  nâ  *  mı *  dır    | 
|


